svgs/sharp-light/sleigh.svg

<svg xmlns="http://www.w3.org/2000/svg" viewBox="0 0 640 512"><!--! Font Awesome Pro 6.6.0 by @fontawesome - https://fontawesome.com License - https://fontawesome.com/license (Commercial License) Copyright 2024 Fonticons, Inc. --><path d="M16 32L0 32 0 64l16 0 16 0 0 192c0 59.6 40.8 109.8 96 124l0 68-80 0-16 0 0 32 16 0 576 0 16 0 0-16 0-80 0-16-32 0 0 16 0 64-160 0 0-64c70.7 0 128-57.3 128-128l0-128 16 0 16 0 0-32-16 0-16 0-32 0-16 0-48 0-32 0 0 32 0 64 0 32-32 0-6.6 0c-80.5 0-155.3-41.5-198-109.7C179.6 63.4 124 32.4 64 32l-1 0-7 0L32 32 16 32zM416 448l-256 0 0-64 256 0 0 64zM528 128l16 0 0 128c0 53-43 96-96 96l-288 0c-53 0-96-43-96-96L64 64c48.9 .4 94.3 25.7 120.3 67.2C232.8 208.9 317.9 256 409.4 256l38.6 0 32 0 0-32 0-96 48 0z"/></svg>

<svg xmlns="http://www.w3.org/2000/svg" viewBox="0 0 640 512"><!--! Font Awesome Pro 6.4.2 by @fontawesome - https://fontawesome.com License - https://fontawesome.com/license (Commercial License) Copyright 2023 Fonticons, Inc. --><path d="M16 32H0V64H16 32V256c0 59.6 40.8 109.8 96 124v68H48 32v32H48 624h16V464 384 368H608v16 64H448V384c70.7 0 128-57.3 128-128V128h16 16V96H592 576 544 528 480 448v32 64 32H416h-6.6c-80.5 0-155.3-41.5-198-109.7C179.6 63.4 124 32.4 64 32l-1 0H56 32 16zM416 448H160V384H416v64zM528 128h16V256c0 53-43 96-96 96H160c-53 0-96-43-96-96V64c48.9 .4 94.3 25.7 120.3 67.2C232.8 208.9 317.9 256 409.4 256H448h32V224 128h48z"/></svg>
